~a = Buffer.read(s, "C:/Users/Jim/Desktop/SuperCollider/perc lofi/1.wav");
~b = Buffer.read(s, "C:/Users/Jim/Desktop/SuperCollider/perc lofi/2.wav");
~c = Buffer.read(s, "C:/Users/Jim/Desktop/SuperCollider/perc lofi/3.wav");
~a.play;
~b.play;
~c.play;