~a = Buffer.read(s, "C:/Users/Jim/Desktop/SuperCollider-Project/Projet Alpha/Samples/perc/1.wav" );
~b = Buffer.read(s, "C:/Users/Jim/Desktop/SuperCollider-Project/Projet Alpha/Samples/perc/2.wav" );
~c = Buffer.read(s, "C:/Users/Jim/Desktop/SuperCollider-Project/Projet Alpha/Samples/perc/3.wav" );

~a.play;
~b.play;
~c.play;